SVG/toggle-on.svg

<?xml version="1.0" encoding="utf-8"?>
<!-- Generated by IcoMoon.io -->
<!DOCTYPE svg PUBLIC "-//W3C//DTD SVG 1.1//EN" "http://www.w3.org/Graphics/SVG/1.1/DTD/svg11.dtd">
<svg version="1.1" xmlns="http://www.w3.org/2000/svg" xmlns:xlink="http://www.w3.org/1999/xlink" width="16" height="14" viewBox="0 0 16 14">
<path fill="#444444" d="M0 7q0-1.016 0.398-1.941t1.066-1.594 1.594-1.066 1.941-0.398h6q1.016 0 1.941 0.398t1.594 1.066 1.066 1.594 0.398 1.941-0.398 1.941-1.066 1.594-1.594 1.066-1.941 0.398h-6q-1.016 0-1.941-0.398t-1.594-1.066-1.066-1.594-0.398-1.941zM11 11q0.813 0 1.551-0.316t1.277-0.855 0.855-1.277 0.316-1.551-0.316-1.551-0.855-1.277-1.277-0.855-1.551-0.316-1.551 0.316-1.277 0.855-0.855 1.277-0.316 1.551 0.316 1.551 0.855 1.277 1.277 0.855 1.551 0.316z"></path>
</svg>

<svg xmlns="http://www.w3.org/2000/svg" viewBox="0 0 16 14"><path d="M0 7q0-1.016.398-1.94t1.066-1.595T3.058 2.4t1.94-.4h6q1.017 0 1.942.4t1.594 1.065T15.6 5.06 15.998 7 15.6 8.94t-1.066 1.595T12.94 11.6 11 12H5q-1.017 0-1.942-.4t-1.594-1.065T.398 8.94 0 7zm11 4q.813 0 1.55-.316t1.278-.855.855-1.28T15 7t-.318-1.55-.855-1.278-1.277-.855T11 3.002t-1.55.316-1.278.855-.855 1.277T7 7t.317 1.552.855 1.277 1.277.852T11 11z" /></svg>
